packages/icons/svg/Fill/hash.svg

<svg width="24" height="24" viewBox="0 0 24 24" fill="none" xmlns="http://www.w3.org/2000/svg">
<g id="Icon/Fill/hash">
<path id="Mask" fill-rule="evenodd" clip-rule="evenodd" d="M9.69824 14L10.4272 10H14.3022L13.5732 14H9.69824ZM20.0002 14H15.6982L16.4272 10H20.0002C20.5502 10 21.0002 9.55 21.0002 9C21.0002 8.45 20.5502 8 20.0002 8H16.7902L17.4842 4.189C17.5842 3.641 17.2022 3.112 16.6352 3.016C16.0682 2.919 15.5232 3.289 15.4232 3.838L14.6652 8H10.7902L11.4842 4.189C11.5842 3.641 11.2022 3.112 10.6352 3.016C10.0682 2.919 9.52324 3.289 9.42324 3.838L8.66524 8H4.00024C3.45024 8 3.00024 8.45 3.00024 9C3.00024 9.55 3.45024 10 4.00024 10H8.30224L7.57324 14H4.00024C3.45024 14 3.00024 14.45 3.00024 15C3.00024 15.55 3.45024 16 4.00024 16H7.20924L6.51524 19.811C6.41624 20.359 6.79824 20.888 7.36524 20.984C7.93124 21.081 8.47724 20.711 8.57624 20.162L9.33424 16H13.2092L12.5152 19.811C12.4162 20.359 12.7982 20.888 13.3652 20.984C13.9312 21.081 14.4772 20.711 14.5762 20.162L15.3342 16H20.0002C20.5502 16 21.0002 15.55 21.0002 15C21.0002 14.45 20.5502 14 20.0002 14Z" fill="#000000"/>
</g>
</svg>

<svg fill="none" height="24" viewBox="0 0 24 24" width="24" xmlns="http://www.w3.org/2000/svg"><path clip-rule="evenodd" d="m9.69824 14 .72896-4h3.875l-.729 4zm10.30196-.0001h-4.302l.729-3.99996h3.573c.55 0 1-.45 1-1s-.45-1-1-1h-3.21l.694-3.811c.1-.548-.282-1.077-.849-1.173-.567-.097-1.112.273-1.212.822l-.758 4.162h-3.875l.694-3.811c.1-.548-.282-1.077-.849-1.173-.567-.097-1.11199.273-1.21199.822l-.758 4.162h-4.665c-.55 0-1 .45-1 1s.45 1 1 1h4.302l-.729 3.99996h-3.573c-.55 0-1 .45-1 1s.45 1 1 1h3.209l-.694 3.811c-.099.548.283 1.077.85 1.173.566.097 1.112-.273 1.211-.822l.758-4.162h3.87499l-.694 3.811c-.099.548.283 1.077.85 1.173.566.097 1.112-.273 1.211-.822l.758-4.162h4.666c.55 0 1-.45 1-1s-.45-1-1-1z" fill="#6b7280" fill-rule="evenodd"/></svg>
